X: 325
T: I99 Sher
M: 2/4
L: 1/8
K: Gmin
Q:1/4=80
D|:"Gm"G/B/d/g/ ^f/g/d/=f/|"Cm"e/d/c/e/ "Gm"dc/B/|B c2 "D7"B/A/|"Gm" GBdf|"Bb"a b2 a/g/|
"D7"^f/g/a/g/ f/e/d/c/|"Cm"c=f/e/ d/c/B/A/|[1"Gm"B/c/A/d/ G3/2D/:|[2"Gm"B/c/A/B/ G3/2/G/|: "Bb"B3 c/d/|B3 c/d/|
Bc/d/ Bc/d/|B/F/G/A/ B/c/d/e/|"F"f2- "C" f=e|"F"f2- "C"f=e|"F"g/f/f/=e/ g/f/f/e/|g/f/f/=e/ f2|
"Bb"b/d/^e/g/ f/d/e/c/|"F"f3 c/B/|"Cm" c/B/c/d/ e/F/G/A/|"Bb"_B/d/"F7"c/e/ "Bb"d/f/"F7"e/g/|"Bb"f/b/a/g/ f/d/e/g/|
"Bb"f/d/"F7"e/c/ Td"Bb"c/B/|"F7"c/B/c/d/ e/F/G/A/|[1 "Bb"c/B/ B2 "F7" A:|[2"Bb" c/B/ "D7"B2 d|"Gm"b2 "D7"a2|"Gm"g2-g/d/g/b/|
"D7"a3/2g/ a/g/^f/e/|e/d/ d2 d|"G"g3/2=f/ "G7" ed|"Cm"c3 d/e/|"D"d/e/d/c/ B/c/B/A/|"Gm"GBdg|bd'"D7"ab|
"Gm"g2=g/d/g/b/|"D7"a3/2g/ a/g/^f/e/|e/d/ d2 g|"G7"_a3/2g/ a/g/=f/e/|"Cm"d/c/f/e/ d/c/B/A/|"Gm"B/A/A/B/ "D7"B/_A/A/G/|"Gm"G4|



